X: 8
T: Mother's Delight
R: reel
M: 4/4
L: 1/8
K: Ddor
F2FF ECCE|F2FF ECCE|Dddd defe|~d2 cd ABcA|
d2dc AG_B=B|cBcG EGCE|Dddc AGAB|cAGE EDDE|
FEFD GFGE|A^GAc =GEDE|Dddd defe|~d2 cd ABcA|
d2dc AG_B=B|cBcG EGCE|Dddc AGAB|cAGE EDDE|
(3FEFdA FDDD|EcCG ECCC|FDdA FDDD|EDCE ^CDDE|
(3FEFdA FDDD|EcCG ECCC|F2FF FEDC|A,FEF ^CDDE|
(3FEFdA FDDD|(3ECGeG ECCC|FDdA FDDD|EDCE ^CDDE|
FDdD eDdD|CCcC dCGC|F2FF FEDC|A,FEF ^CDDE|


Tune 257	Setting 12985

